X: 27174
T: Miss Monaghan
R: reel
M: 4/4
K: Dmajor
|:D2ED FAAd|B2BA FABc|d2dB ABde|fede fee2|
{E}D2ED FAAd|~B3A FABc|d2dB ABdB|(3AGF EG FDD2:|
|:faab afdf|gefd edBc|~d3B ABde|fede fee2|
faab afdf|g2fd edBc|d2dB ABdB|AFEG FDD2:|

